src/assets/ton-eth.svg

<svg fill="none" height="49" viewBox="0 0 50 49" width="50" xmlns="http://www.w3.org/2000/svg" xmlns:xlink="http://www.w3.org/1999/xlink"><clipPath id="a"><rect height="48" rx="24" width="48"/></clipPath><clipPath id="b"><rect height="16" rx="8" width="16" x="33" y="32"/></clipPath><g clip-path="url(#a)"><path d="m24 48c13.2555 0 24-10.7445 24-24s-10.7445-24-24-24-24 10.7445-24 24 10.7445 24 24 24z" fill="#0098ea"/><path d="m32.1945 13.395h-16.3905c-3.0135 0-4.923 3.2505-3.4065 5.88l10.1145 17.532c.66 1.1445 2.3145 1.1445 2.9745 0l10.1175-17.5335c1.515-2.6235-.396-5.8785-3.408-5.8785zm-9.69 18.153-2.2035-4.263-5.316-9.507c-.0808-.142-.1227-.3028-.1214-.4661.0012-.1634.0455-.3235.1285-.4643.0829-.1407.2015-.2571.3438-.3374.1423-.0802.3032-.1215.4666-.1197h6.6975v15.1605l.003-.003zm10.5045-13.7715-5.313 9.51-2.2035 4.2615v-15.1605h6.7005c.735 0 1.167.78.816 1.389z" fill="#fff"/></g><g clip-path="url(#b)"><path d="m41.0015 32.0062c4.417 0 7.9969 3.5799 7.9969 7.9969s-3.5799 7.9969-7.9969 7.9969-7.9969-3.5799-7.9969-7.9969 3.5815-7.9969 7.9969-7.9969z" fill="#214cff"/><g fill="#fff"><path d="m41.0028 34.3007v7.9687l3.5018-2.0992zm0 11.4049 3.5018-5.0277-3.5018 2.1179zm0-11.4049v7.9687l-3.5033-2.0992z"/><path d="m41.0028 42.7958v2.9098l-3.5033-5.0277z"/></g></g><rect height="17" rx="8.5" stroke="#b9befe" width="17" x="32.5" y="31.5"/></svg>

<svg width="50" height="49" viewBox="0 0 50 49" fill="none" xmlns="http://www.w3.org/2000/svg">
    <g clip-path="url(#clip0_7361_14973)">
        <path d="M24 48C37.2555 48 48 37.2555 48 24C48 10.7445 37.2555 0 24 0C10.7445 0 0 10.7445 0 24C0 37.2555 10.7445 48 24 48Z" fill="#0098EA"/>
        <path d="M32.1945 13.395H15.804C12.7905 13.395 10.881 16.6455 12.3975 19.275L22.512 36.807C23.172 37.9515 24.8265 37.9515 25.4865 36.807L35.604 19.2735C37.119 16.65 35.208 13.395 32.196 13.395H32.1945ZM22.5045 31.548L20.301 27.285L14.985 17.778C14.9042 17.636 14.8623 17.4752 14.8636 17.3119C14.8648 17.1485 14.9091 16.9884 14.9921 16.8476C15.075 16.7069 15.1936 16.5905 15.3359 16.5102C15.4782 16.43 15.6391 16.3887 15.8025 16.3905H22.5V31.551L22.503 31.548H22.5045ZM33.009 17.7765L27.696 27.2865L25.4925 31.548V16.3875H32.193C32.928 16.3875 33.36 17.1675 33.009 17.7765Z" fill="white"/>
    </g>
    <g clip-path="url(#clip1_7361_14973)">
        <path d="M41.0015 32.0062C45.4185 32.0062 48.9984 35.5861 48.9984 40.0031C48.9984 44.4201 45.4185 48 41.0015 48C36.5845 48 33.0046 44.4201 33.0046 40.0031C33.0046 35.5861 36.5861 32.0062 41.0015 32.0062Z" fill="#214CFF"/>
        <path d="M41.0028 34.3007V42.2694L44.5046 40.1702L41.0028 34.3007ZM41.0028 45.7056L44.5046 40.6779L41.0028 42.7958V45.7056ZM41.0028 34.3007V42.2694L37.4995 40.1702L41.0028 34.3007Z" fill="white"/>
        <path d="M41.0028 42.7958V45.7056L37.4995 40.6779L41.0028 42.7958Z" fill="white"/>
    </g>
    <rect x="32.5" y="31.5" width="17" height="17" rx="8.5" stroke="#B9BEFE"/>
    <defs>
        <clipPath id="clip0_7361_14973">
            <rect width="48" height="48" rx="24" fill="white"/>
        </clipPath>
        <clipPath id="clip1_7361_14973">
            <rect x="33" y="32" width="16" height="16" rx="8" fill="white"/>
        </clipPath>
    </defs>
</svg>
